X:181
T:Egg Dance. VWMLa.181
%%VWML:Anon2-3049-p112-0
F:http://www.vwml.org/record/Anon2/3049/p112
S:Anon. MS, late 18thC, Vaughan Williams Mem. Library
N:It's not a waltz, but you might use it for one,
N:and it's too good to go to waste..CGP
O:England;Yorkshire
Z:vmp/efdss.Simon Wilson. Reviewed PJH 2008.
M:3/4
L:1/4
Q:3/4=70
K:F
a|ae/f/g/e/|fdf|eg/f/e/d/|^cAa|\
ae/f/g/e/|fdf|eg/f/e/f/|d2:|
|:d|{d}^c/B/Ad|{d}^c/B/Ad|e(g/f/)(e/d/)|{d}^c/B/Ad|\
{d}^c/B/Ad|{d}^c/B/Ad|eg/f/e/f/|d2:|
